X: 134
T: Cheshire Rounds
P: Longways for as many as will
%R: triple hornpipe, minuet
B: "The Dancing-Master: Containing Directions and Tunes for Dancing" printed by W. Pearson for John Walsh, London ca. 1709
S: 7: DMDfD http://digital.nls.uk/special-collections-of-printed-music/pageturner.cfm?id=89751228 p.241 "Y"
Z: 2013 John Chambers <jc:trillian.mit.edu>
M: 3/2
L: 1/8
K: D
% - - - - - - - - - - - - - - - - - - - - - - - - -
[| f2(ef) gfed (fg)a2 | b2 e4 d2 c2A2 | f2(ef) gfed (fg)a2 | A2 d4 A2 F2D2 |]\
[| B2AB (=cB) (AG) F4 | E2 e4 d2 c2A2 | B2(AB) (=cB) (AG) F3E | D2 d4 A2 F2D2 |]
% - - - - - - - - - - - - - - - - - - - - - - - - -
%%begintext align
%% The 1. man casts off and his Partner follows him, the man goes quite round; the woman slips up the
%% middle, the woman casts off and goes quite round: the 1. man slips up the middle, the 1. cu. cross over
%% below the 2. cu. and cross up into their own places again, then right and left quite round into the 2.
%% couples places.
%% [DMDfD]
%%endtext
%%sep 1 8 500

%%sep 1 1 500
%%sep 1 1 500
